X: 2
T:Mist-Covered Mountain, The
M:6/8
L:1/8
C:Junior Crehan
R:Double Jig
K:ADor
D[|:EAA ABd|ecA AGE|GAG GBc|dBA GED|!
EAA ABd|ecA AGE|efg dBG|1BAG A2D:|2BAG A2a|]!
age a2b|age edB|AGE G2A|BAB GED|!
age a2b|age edB|AGE G2A|BAG A2a||!
age a2b|age edB|AGE G2A|BAB GED|!
EDE G2A|BAG Bcd|efg dBG|BAG A2D|]!
